X:32
T:Passant Par Paris
M:2/4
L:1/8
N:Assez anim
N:La Bourre 4th edition 1929, page 45
Z:Steve Mansfield www.lesession.co.uk May 2012
K:Gm
G G A F | G4 | G d d d |
c2 d2 | G G A F | G4 | G d d d | c2 !fermata!d2 |
d d e d | c2 A B | c3 d | B A G F |
G2 A2 | D3 "rall." D | G A c B | A2 !fermata! G2 |]

